modules/feathericon/icons/mouse.svg

<?xml version="1.0" encoding="UTF-8"?>
<svg width="24px" height="24px" viewBox="0 0 24 24" version="1.1" xmlns="http://www.w3.org/2000/svg" xmlns:xlink="http://www.w3.org/1999/xlink">
    <!-- Generator: sketchtool 52.2 (67145) - http://www.bohemiancoding.com/sketch -->
    <title>mouse</title>
    <desc>Created with sketchtool.</desc>
    <g id="devices" stroke="none" stroke-width="1" fill="none" fill-rule="evenodd">
        <g id="mouse" fill="#000000" fill-rule="nonzero">
            <path d="M12,4 C9.790861,4 8,5.790861 8,8 L8,16 C8,18.209139 9.790861,20 12,20 C14.209139,20 16,18.209139 16,16 L16,8 C16,5.790861 14.209139,4 12,4 Z M12,2 C15.3137085,2 18,4.6862915 18,8 L18,16 C18,19.3137085 15.3137085,22 12,22 C8.6862915,22 6,19.3137085 6,16 L6,8 C6,4.6862915 8.6862915,2 12,2 Z M13,10 C13,10.5522847 12.5522847,11 12,11 C11.4477153,11 11,10.5522847 11,10 L11,7 C11,6.44771525 11.4477153,6 12,6 C12.5522847,6 13,6.44771525 13,7 L13,10 Z" id="Shape"></path>
        </g>
    </g>
</svg>

<svg width="24" height="24" viewBox="0 0 24 24" xmlns="http://www.w3.org/2000/svg"><path d="M12 4a4 4 0 0 0-4 4v8a4 4 0 1 0 8 0V8a4 4 0 0 0-4-4zm0-2a6 6 0 0 1 6 6v8a6 6 0 1 1-12 0V8a6 6 0 0 1 6-6zm1 8a1 1 0 0 1-2 0V7a1 1 0 0 1 2 0v3z" fill="#000" fill-rule="nonzero"/></svg>
